storage/app/icons/phosphoricons/thin/piano-keys-thin.svg

<svg xmlns="http://www.w3.org/2000/svg" fill="currentColor" viewBox="0 0 256 256"><path d="M208 36H48a12 12 0 0 0-12 12v160a12 12 0 0 0 12 12h160a12 12 0 0 0 12-12V48a12 12 0 0 0-12-12M76 44h32v96H76Zm36 104a4 4 0 0 0 4-4V44h24v100a4 4 0 0 0 4 4h12v64h-56v-64Zm36-8V44h32v96ZM44 208V48a4 4 0 0 1 4-4h20v100a4 4 0 0 0 4 4h20v64H48a4 4 0 0 1-4-4m168 0a4 4 0 0 1-4 4h-44v-64h20a4 4 0 0 0 4-4V44h20a4 4 0 0 1 4 4Z"/></svg>

<svg xmlns="http://www.w3.org/2000/svg" viewBox="0 0 256 256" fill="currentColor"><path d="M208,36H48A12,12,0,0,0,36,48V208a12,12,0,0,0,12,12H208a12,12,0,0,0,12-12V48A12,12,0,0,0,208,36ZM76,44h32v96H76Zm36,104a4,4,0,0,0,4-4V44h24V144a4,4,0,0,0,4,4h12v64H100V148Zm36-8V44h32v96ZM44,208V48a4,4,0,0,1,4-4H68V144a4,4,0,0,0,4,4H92v64H48A4,4,0,0,1,44,208Zm168,0a4,4,0,0,1-4,4H164V148h20a4,4,0,0,0,4-4V44h20a4,4,0,0,1,4,4Z"/></svg>
